X:1
T:Title
%%score { 1 | ( 2 3 ) }
L:1/8
M:3/4
K:Eb
V:1 treble nm="Grand Piano"
V:2 bass 
V:3 bass 
V:1
 z2 z2[Q:1/4=92] [GB]>[_G=A] | [GB]3 [EG] [DF]E | C [CE]3 [B,D]>[B,E] | [DF]3 [Dc] [DB]>[DF] | %4
 [EG]4 [GB]>[_G=A] | [GB]3 [EG] [DF]E | C [CE]3 [B,D]>[B,E] | [DF]3 [FA] [EG]>[DF] |[M:2/4] E4 | %9
[M:1/4] [GB]>[_G=A] |[M:3/4] [GB]3 G Ec | B4 F>G | [FA]3 [EG] [DF][DAc] | [GB]4 [GB]>[GB] | %14
 [Ge]3 B AG | c4 A>c | B3 G [DF]>E |[M:2/4] E4 |] %18
V:2
 z2 z2 [E,E]>[E,E] | [E,E]3 [E,B,] [B,,A,][C,G,C] | [A,,A,] [A,,A,]3 [B,,F,]>[B,,G,] | %3
 [B,,B,]3 [B,,B,] [B,,F,]>[B,,B,] | [E,B,]4 [E,E]>[E,E] | [E,E]3 [E,B,] [B,,A,][C,G,C] | %6
 [A,,A,] [A,,A,]3 [B,,F,]>[B,,G,] | [B,,B,]3 [B,,B,] [B,,B,]>[B,,A,] |[M:2/4] [E,G,]4 | %9
[M:1/4] [E,E]>[E,E] |[M:3/4] [E,E]3 [E,B,E] [E,G,][E,A,E] | [E,G,E]4 [B,D]>[B,E] | %12
 [B,,B,]3 [B,,B,] B,/C/B,, | [E,E]4 [E,E]>[E,E] | [E,B,]3 [E,G,E] [F,B,D][K:treble][G,B,E] | %15
 [A,E]4 [A,CE]>[A,EA] | [B,EG]3[K:bass] [B,E] [B,,A,]>[E,G,] |[M:2/4] [E,G,]4 |] %18
V:3
 x6 | x6 | x6 | x6 | x6 | x6 | x6 | x6 |[M:2/4] x4 |[M:1/4] x2 |[M:3/4] x6 | x6 | z2 z2 .B,,2 | %13
 x6 | x5[K:treble] x | x6 | x3[K:bass] x3 |[M:2/4] x4 |] %18

